X:1
T:Jug of Punch, The
R:reel
M:4/4
L:1/8
K:Edor
EFGA BA~A2|BA~A2 BAFD|~B,3C DEFG|A2BA FDB,A,|
B,DEF G2EF|GEFE DEFA|defe dBAF|1 GBFB E3D:|2 GBFB E3A|]
|:Bdef ~g3e|~f3e dBBA|BFBc dcde|fgfe dB~B2|
Bdef ~g3e|~f3e dBBc|d3B c3B|1 GBFB E3A:|2 GBFB E3D|]
